Adwaita++/apps/16/sublime-text.svg

<svg height="16" viewBox="0 0 16 16" width="16" xmlns="http://www.w3.org/2000/svg" xmlns:xlink="http://www.w3.org/1999/xlink">
  <g fill="#474747">
    <path d="m13.412 8.024c0-.164-.122-.259-.271-.212l-10.259 3.254c-.149.047-.27.219-.27.384v3.326c0 .164.121.259.27.212l10.259-3.254c.149-.048.271-.22.271-.384z"/>
    <path d="m2.588 7.976c0 .164.122.259.271.212l10.259-3.254c.149-.047.27-.219.27-.384v-3.326c0-.164-.121-.259-.27-.212l-10.259 3.254c-.149.048-.271.22-.271.384z"/>
    <path d="m2.612 7.937c0 .164.121.336.27.383l10.259 3.255c.15.047.271-.048.271-.212v-3.326c0-.164-.121-.336-.271-.384l-10.259-3.254c-.149-.048-.27.047-.27.212z"/>
  </g>
</svg>

<svg xmlns="http://www.w3.org/2000/svg" style="isolation:isolate" width="16" height="16" viewBox="0 0 16 16">
 <defs>
  <style id="current-color-scheme" type="text/css">
   .ColorScheme-Text { color:#474747; } .ColorScheme-Highlight { color:#5294e2; }
  </style>
  <linearGradient id="arrongin" x1="0%" x2="0%" y1="0%" y2="100%">
   <stop offset="0%" style="stop-color:#dd9b44"/>
   <stop offset="100%" style="stop-color:#ad6c16"/>
  </linearGradient>
  <linearGradient id="aurora" x1="0%" x2="0%" y1="0%" y2="100%">
   <stop offset="0%" style="stop-color:#09D4DF"/>
   <stop offset="100%" style="stop-color:#9269F4"/>
  </linearGradient>
  <linearGradient id="fitdance" x1="0%" x2="0%" y1="0%" y2="100%">
   <stop offset="0%" style="stop-color:#1AD6AB"/>
   <stop offset="100%" style="stop-color:#329DB6"/>
  </linearGradient>
  <linearGradient id="oomox" x1="0%" x2="0%" y1="0%" y2="100%">
   <stop offset="0%" style="stop-color:#efefe7"/>
   <stop offset="100%" style="stop-color:#8f8f8b"/>
  </linearGradient>
  <linearGradient id="rainblue" x1="0%" x2="0%" y1="0%" y2="100%">
   <stop offset="0%" style="stop-color:#00F260"/>
   <stop offset="100%" style="stop-color:#0575E6"/>
  </linearGradient>
  <linearGradient id="sunrise" x1="0%" x2="0%" y1="0%" y2="100%">
   <stop offset="0%" style="stop-color:#FF8501"/>
   <stop offset="100%" style="stop-color:#FFCB01"/>
  </linearGradient>
  <linearGradient id="telinkrin" x1="0%" x2="0%" y1="0%" y2="100%">
   <stop offset="0%" style="stop-color:#b2ced6"/>
   <stop offset="100%" style="stop-color:#6da5b7"/>
  </linearGradient>
  <linearGradient id="60spsycho" x1="0%" x2="0%" y1="0%" y2="100%">
   <stop offset="0%" style="stop-color:#df5940"/>
   <stop offset="25%" style="stop-color:#d8d15f"/>
   <stop offset="50%" style="stop-color:#e9882a"/>
   <stop offset="100%" style="stop-color:#279362"/>
  </linearGradient>
  <linearGradient id="90ssummer" x1="0%" x2="0%" y1="0%" y2="100%">
   <stop offset="0%" style="stop-color:#f618c7"/>
   <stop offset="20%" style="stop-color:#94ffab"/>
   <stop offset="50%" style="stop-color:#fbfd54"/>
   <stop offset="100%" style="stop-color:#0f83ae"/>
  </linearGradient>
  <clipPath id="_clipPath_fZLefABIJ56yHQrvz35jIWoVAKRDKxpJ">
   <rect width="16" height="16"/>
  </clipPath>
 </defs>
 <g clip-path="url(#_clipPath_fZLefABIJ56yHQrvz35jIWoVAKRDKxpJ)">
  <g>
   <path style="fill:currentColor" class="ColorScheme-Text" d="M 13.412 8.024 C 13.412 7.86 13.29 7.765 13.141 7.812 L 2.882 11.066 C 2.733 11.113 2.612 11.285 2.612 11.45 L 2.612 14.776 C 2.612 14.94 2.733 15.035 2.882 14.988 L 13.141 11.734 C 13.29 11.686 13.412 11.514 13.412 11.35 L 13.412 8.024 Z"/>
   <path style="fill:currentColor" class="ColorScheme-Text" d="M 2.588 7.976 C 2.588 8.14 2.71 8.235 2.859 8.188 L 13.118 4.934 C 13.267 4.887 13.388 4.715 13.388 4.55 L 13.388 1.224 C 13.388 1.06 13.267 0.965 13.118 1.012 L 2.859 4.266 C 2.71 4.314 2.588 4.486 2.588 4.65 L 2.588 7.976 Z"/>
   <path style="fill:currentColor" class="ColorScheme-Text" d="M 2.612 7.937 C 2.612 8.101 2.733 8.273 2.882 8.32 L 13.141 11.575 C 13.291 11.622 13.412 11.527 13.412 11.363 L 13.412 8.037 C 13.412 7.873 13.291 7.701 13.141 7.653 L 2.882 4.399 C 2.733 4.351 2.612 4.446 2.612 4.611 L 2.612 7.937 Z"/>
  </g>
 </g>
</svg>
